app/dist/common/images/manda-resh-inst-hldgs.svg

<svg height="18" viewBox="0 0 18 18" width="18" xmlns="http://www.w3.org/2000/svg"><path d="m0 0h18v18h-18z" fill="#f0f3fa"/><path d="m8.55 5v4h.45v-2.85l1.1 2.85h.77l1.13-2.57v2.45l-1.56 4.12h-6.44v-8zm1.56 0 .66 2.42 1.05-2.42zm2.89 0v3.88l.96 4.12h.04v-8zm-.17 8-.21-.83h-1.4l-.31.83zm-.31-1.23h-1.14l.69-1.8z" fill="#002045"/></svg>

<!-- by TradingView --><svg width="18" height="18" viewBox="0 0 18 18" xmlns="http://www.w3.org/2000/svg"><path fill="#F0F3FA" d="M0 0h18v18H0z"/><path d="M8.55 5v4H9V6.15L10.1 9h.77L12 6.43v2.45L10.44 13H4V5h4.55Zm1.56 0 .66 2.42L11.82 5h-1.71ZM13 5v3.88l.96 4.12H14V5h-1Zm-.17 8-.21-.83h-1.4l-.31.83h1.92Zm-.31-1.23h-1.14l.69-1.8.45 1.8Z" fill="#002045"/></svg>
